docs/src/assets/images/github.svg

<svg height="33" viewBox="0 0 33 33" width="33" xmlns="http://www.w3.org/2000/svg"><path d="m152.318527 331.455c-8.834157 0-15.998527 7.344673-15.998527 16.405419 0 7.247993 4.584057 13.396248 10.942018 15.56551.800516.151062 1.092237-.355501 1.092237-.790562 0-.389742-.013751-1.420998-.021609-2.789626-4.450474.990971-5.389484-2.199475-5.389484-2.199475-.727831-1.895334-1.77685-2.399884-1.77685-2.399884-1.452715-1.017156.11001-.997014.11001-.997014 1.605942.115815 2.450658 1.690896 2.450658 1.690896 1.427177 2.506635 3.745235 1.782541 4.656742 1.362586.14537-1.059453.558888-1.782541 1.015624-2.192424-3.552718-.413912-7.288131-1.821818-7.288131-8.108044 0-1.790597.623715-3.255906 1.647196-4.401969-.165014-.41492-.714079-2.08366.157157-4.341545 0 0 1.342705-.441103 4.399398 1.681832 1.275914-.364564 2.64514-.54584 4.005525-.552889 1.359403.007049 2.727647.188325 4.005525.552889 3.054729-2.122935 4.39547-1.681832 4.39547-1.681832.8732 2.257885.324135 3.926625.160103 4.341545 1.025446 1.146063 1.644249 2.611372 1.644249 4.401969 0 6.30234-3.741306 7.689096-7.304828 8.094952.573621.506563 1.085362 1.507606 1.085362 3.037369 0 2.193431-.019645 3.96288-.019645 4.500664 0 .439089.288775.949681 1.100095.789555 6.35305-2.174297 10.933178-8.318525 10.933178-15.564503 0-9.060746-7.16437-16.405419-16.001473-16.405419" fill="#fff" fill-rule="evenodd" transform="translate(-136 -331)"/></svg>

<?xml version="1.0" encoding="UTF-8" standalone="no"?>
<svg width="33px" height="33px" viewBox="0 0 33 33" version="1.1" xmlns="http://www.w3.org/2000/svg" xmlns:xlink="http://www.w3.org/1999/xlink">
    <!-- Generator: Sketch 42 (36781) - http://www.bohemiancoding.com/sketch -->
    <title>Fill 50</title>
    <desc>Created with Sketch.</desc>
    <defs></defs>
    <g id="Page-1" stroke="none" stroke-width="1" fill="none" fill-rule="evenodd">
        <g id="GitHub-Mark" transform="translate(-136.000000, -331.000000)" fill="#FFFFFF">
            <path d="M152.318527,331.455 C143.48437,331.455 136.32,338.799673 136.32,347.860419 C136.32,355.108412 140.904057,361.256667 147.262018,363.425929 C148.062534,363.576991 148.354255,363.070428 148.354255,362.635367 C148.354255,362.245625 148.340504,361.214369 148.332646,359.845741 C143.882172,360.836712 142.943162,357.646266 142.943162,357.646266 C142.215331,355.750932 141.166312,355.246382 141.166312,355.246382 C139.713597,354.229226 141.276322,354.249368 141.276322,354.249368 C142.882264,354.365183 143.72698,355.940264 143.72698,355.940264 C145.154157,358.446899 147.472215,357.722805 148.383722,357.30285 C148.529092,356.243397 148.94261,355.520309 149.399346,355.110426 C145.846628,354.696514 142.111215,353.288608 142.111215,347.002382 C142.111215,345.211785 142.73493,343.746476 143.758411,342.600413 C143.593397,342.185493 143.044332,340.516753 143.915568,338.258868 C143.915568,338.258868 145.258273,337.817765 148.314966,339.9407 C149.59088,339.576136 150.960106,339.39486 152.320491,339.387811 C153.679894,339.39486 155.048138,339.576136 156.326016,339.9407 C159.380745,337.817765 160.721486,338.258868 160.721486,338.258868 C161.594686,340.516753 161.045621,342.185493 160.881589,342.600413 C161.907035,343.746476 162.525838,345.211785 162.525838,347.002382 C162.525838,353.304722 158.784532,354.691478 155.22101,355.097334 C155.794631,355.603897 156.306372,356.60494 156.306372,358.134703 C156.306372,360.328134 156.286727,362.097583 156.286727,362.635367 C156.286727,363.074456 156.575502,363.585048 157.386822,363.424922 C163.739872,361.250625 168.32,355.106397 168.32,347.860419 C168.32,338.799673 161.15563,331.455 152.318527,331.455" id="Fill-50"></path>
        </g>
    </g>
</svg>
